X: 1
T: Mowsy Draggie
M: 4/4
L: 1/8
R: reel
K: Emin
|:&quot;Em&quot;e2Be GeBe|&quot;Em&quot;e2Be &quot;D&quot;Adfd|&quot;Em&quot;e2Be GeBe|&quot;Em&quot;dedB &quot;D&quot; AFAd |!
&quot;Em&quot;e2Be GeBe|&quot;Em&quot;e2Be &quot;D&quot;Adfd|&quot;Em&quot;e2Be GeBe|1&quot;Em&quot;gedB &quot;D&quot;AFAd:|2&quot;Em&quot;gedB &quot;D&quot;Adfd||
|:&quot;D&quot;B2GB &quot;A7&quot;^c2FA|&quot;D&quot;GFED &quot;A7&quot;GBA^c|&quot;D&quot;B2GB &quot;A&quot; A2FA|&quot;G&quot;dedB &quot;D&quot;AFAd |
&quot;D&quot;B2GB &quot;A7&quot;^c2FA|&quot;D&quot;GFED &quot;A7&quot;GBA^c|&quot;D&quot;GB &quot;a&quot;A^c &quot;Bm&quot;Bd &quot;c#&quot;^ce|
|1&quot;G&quot;dedB &quot;D&quot;AF Ad:|2&quot;G&quot;dedB &quot;D&quot;Adfd ||
